32x32/actions/mail-replied.svg

<svg xmlns="http://www.w3.org/2000/svg" viewBox="0 0 32 32">
  <defs id="defs3051">
    <style type="text/css" id="current-color-scheme">
      .ColorScheme-Text {
        color:#555e70;
      }
      </style>
  </defs>
 <path 
     style="fill:currentColor;fill-opacity:1;stroke:none" 
     d="M 5 5 L 5 9 L 2 13 L 2 16 L 3 16 L 3 14 L 5 14 L 5.7871094 14 L 16 19.570312 L 26.212891 14 L 27 14 L 29 14 L 29 26 L 14 26 L 14 27 L 30 27 L 30 26 L 30 13 L 27 9 L 27 5 L 5 5 z M 6 6 L 26 6 L 26 12.974609 L 16 18.429688 L 6 12.974609 L 6 6 z M 8 8 L 8 9 L 24 9 L 24 8 L 8 8 z M 8 11 L 8 12 L 17 12 L 17 11 L 8 11 z M 7 18.064453 L 2 22.013672 L 7 25.960938 L 7 23 L 13 23 L 13 21.025391 L 7 21.025391 L 7 18.064453 z "
     class="ColorScheme-Text"
     />
</svg>

<svg xmlns="http://www.w3.org/2000/svg" viewBox="0 0 32 32"><path style="fill:currentColor;fill-opacity:1;stroke:none;color:#555e70" d="M5 5v4l-3 4v3h1v-2h2.787L16 19.57 26.213 14H29v12H14v1h16V13l-3-4V5H5zm1 1h20v6.975L16 18.43 6 12.975V6zm2 2v1h16V8H8zm0 3v1h9v-1H8zm-1 7.064-5 3.95 5 3.947V23h6v-1.975H7v-2.96z"/></svg>
